devoot-frontend/vue-project/src/assets/icons/user_search.svg

<svg width="24" height="24" viewBox="0 0 24 24" fill="none" xmlns="http://www.w3.org/2000/svg">
<g id="Icon / user_search">
<g id="Group">
<path id="Vector" d="M18.1162 18.15L21.9662 22M20.75 11.375C20.75 13.8614 19.7623 16.246 18.0041 18.0041C16.246 19.7623 13.8614 20.75 11.375 20.75C8.88859 20.75 6.50403 19.7623 4.74587 18.0041C2.98772 16.246 2 13.8614 2 11.375C2 8.8886 2.98772 6.50403 4.74587 4.74587C6.50403 2.98772 8.88859 2 11.375 2C13.8614 2 16.246 2.98772 18.0041 4.74587C19.7623 6.50403 20.75 8.8886 20.75 11.375Z" stroke="currentColor" stroke-width="1.5" stroke-linecap="square" stroke-linejoin="round"/>
</g>
<path id="Vector_2" d="M16.3269 15.2V16.25H6.75V15.2C6.75 14.6095 6.99042 14.0392 7.42479 13.6157C7.85979 13.1915 8.45374 12.95 9.07692 12.95H14C14.6232 12.95 15.2171 13.1915 15.6521 13.6157C16.0865 14.0392 16.3269 14.6095 16.3269 15.2ZM8.90385 8.3C8.90385 7.62991 9.17669 6.98331 9.66875 6.50355C10.1615 6.02315 10.8337 5.75 11.5385 5.75C12.2432 5.75 12.9155 6.02315 13.4082 6.50355C13.9002 6.98331 14.1731 7.62991 14.1731 8.3C14.1731 8.97009 13.9002 9.61669 13.4082 10.0965C12.9155 10.5768 12.2432 10.85 11.5385 10.85C10.8337 10.85 10.1615 10.5768 9.66875 10.0965C9.17669 9.61669 8.90385 8.97009 8.90385 8.3Z" stroke="currentColor" stroke-width="1.5"/>
</g>
</svg>

<svg xmlns="http://www.w3.org/2000/svg" fill="none" viewBox="0 0 24 24">
  <path stroke="#000" stroke-linecap="square" stroke-linejoin="round" stroke-width="1.5" d="m18.116 18.15 3.85 3.85M20.75 11.375a9.375 9.375 0 1 1-18.75 0 9.375 9.375 0 0 1 18.75 0Z"/>
  <path stroke="#000" stroke-width="1.5" d="M16.327 15.2v1.05H6.75V15.2c0-.59.24-1.16.675-1.584a2.367 2.367 0 0 1 1.652-.666H14c.623 0 1.217.242 1.652.666.435.423.675.994.675 1.584ZM8.904 8.3c0-.67.273-1.317.765-1.796a2.68 2.68 0 0 1 1.87-.754 2.68 2.68 0 0 1 1.87.754c.491.48.764 1.126.764 1.796a2.51 2.51 0 0 1-.765 1.796 2.68 2.68 0 0 1-1.87.754 2.68 2.68 0 0 1-1.87-.753A2.509 2.509 0 0 1 8.905 8.3Z"/>
</svg>
